X:1
T:Hatikvah
M:4/4
L:1/8
K:F
 A,|D-EF-G A2 A2|B-AB-d A3 A| G2 G3/2 E/2 F2 FF| ED EF D3 A,| DE FG A4|\
B-AB-d A3 A| G2 G3/2 E/2 F2 F2| ED EF D4| D2 d2 d2 d2|c-dc-B A3 D|\
 D2 d2 d2 dd|c-dc-B A2 AA| G2 G3/2 E/2 F2- F3/2 F/2|G-A BcA-G F3/2 F/2|\
 GG GE FF FF|E-D EF D3|
